common/src/main/resources/icons/plugins/resharper/AssemblyExplorer/ZipFolderOpened.svg

<svg xmlns="http://www.w3.org/2000/svg" width="16" height="16" fill-rule="evenodd" stroke-linejoin="round" stroke-miterlimit="1.414" clip-rule="evenodd" data-big="true" viewBox="0 0 24 24"><path fill="#795548" d="M20 18H4V8h16m0-2h-8l-2-2H4c-1.11 0-2 .89-2 2v12a2 2 0 0 0 2 2h16a2 2 0 0 0 2-2V8a2 2 0 0 0-2-2"/><path fill="#A1887F" d="M18.046 11.194a4.93 4.93 0 0 0-4.929 4.928h-1.642l2.13 2.13.038.077 2.213-2.207h-1.643a3.83 3.83 0 0 1 3.833-3.833 3.83 3.83 0 0 1 3.833 3.833 3.83 3.83 0 0 1-3.833 3.834 3.8 3.8 0 0 1-2.705-1.128l-.778.777a4.9 4.9 0 0 0 3.483 1.446 4.929 4.929 0 0 0 0-9.857m-.548 2.738v2.738l2.344 1.39.394-.662-1.916-1.139v-2.327z"/></svg>

<!--
  - The MIT License (MIT)
  -
  - Copyright (c) 2015-2024 Elior "Mallowigi" Boukhobza
  -
  - Permission is hereby granted, free of charge, to any person obtaining a copy
  - of this software and associated documentation files (the "Software"), to deal
  - in the Software without restriction, including without limitation the rights
  - to use, copy, modify, merge, publish, distribute, sublicense, and/or sell
  - copies of the Software, and to permit persons to whom the Software is
  - furnished to do so, subject to the following conditions:
  -
  - The above copyright notice and this permission notice shall be included in all
  - copies or substantial portions of the Software.
  -
  - THE SOFTWARE IS PROVIDED "AS IS", WITHOUT WARRANTY OF ANY KIND, EXPRESS OR
  - IMPLIED, INCLUDING BUT NOT LIMITED TO THE WARRANTIES OF MERCHANTABILITY,
  - FITNESS FOR A PARTICULAR PURPOSE AND NONINFRINGEMENT. IN NO EVENT SHALL THE
  - AUTHORS OR COPYRIGHT HOLDERS BE LIABLE FOR ANY CLAIM, DAMAGES OR OTHER
  - LIABILITY, WHETHER IN AN ACTION OF CONTRACT, TORT OR OTHERWISE, ARISING FROM,
  - OUT OF OR IN CONNECTION WITH THE SOFTWARE OR THE USE OR OTHER DEALINGS IN THE
  - SOFTWARE.
  -->

<svg data-big="true" xmlns="http://www.w3.org/2000/svg" clip-rule="evenodd" fill-rule="evenodd" stroke-linejoin="round"
     stroke-miterlimit="1.414" viewBox="0 0 24 24" width="16px" height="16px">
  <path fill="#795548"
        d="M20,18H4V8H20M20,6H12L10,4H4C2.89,4 2,4.89 2,6V18A2,2 0 0,0 4,20H20A2,2 0 0,0 22,18V8C22,6.89 21.1,6 20,6Z"/>

  <path fill="#A1887F"
        d="M18.046 11.194a4.929 4.929 0 0 0-4.929 4.928h-1.642l2.13 2.13.038.077 2.213-2.207h-1.643a3.83 3.83 0 0 1 3.833-3.833 3.83 3.83 0 0 1 3.833 3.833 3.83 3.83 0 0 1-3.833 3.834 3.802 3.802 0 0 1-2.705-1.128l-.778.777a4.904 4.904 0 0 0 3.483 1.446 4.929 4.929 0 0 0 0-9.857zm-.548 2.738v2.738l2.344 1.39.394-.662-1.916-1.139v-2.327z"/>
</svg>
